img/sync-16.svg

<svg xmlns="http://www.w3.org/2000/svg" viewBox="0 0 16 16"><path d="M14 1c-.6 0-1 .4-1 1v1.1C10.3.3 5.9.2 3.2 2.9c-1 .9-1.7 2.1-2 3.4-.1.5.2 1.1.7 1.2.6.2 1.1-.1 1.3-.7C3.7 4.6 5.7 3 8 3c1.6 0 3 .7 4 2h-2c-.6 0-1 .4-1 1s.4 1 1 1h4c.6 0 1-.4 1-1V2c0-.6-.4-1-1-1zm0 7.5c-.5-.1-1.1.2-1.2.7-.5 2.2-2.5 3.8-4.8 3.8-1.6 0-3-.7-4-2h2c.6 0 1-.4 1-1s-.4-1-1-1H2c-.6 0-1 .4-1 1v4c0 .6.4 1 1 1s1-.4 1-1v-1.1c2.7 2.8 7.1 2.9 9.8.2 1-.9 1.6-2.1 1.9-3.4.2-.5-.1-1.1-.7-1.2z" fill="#424c55"/></svg>

<?xml version="1.0" encoding="utf-8"?>
<!-- Generator: Adobe Illustrator 21.1.0, SVG Export Plug-In . SVG Version: 6.00 Build 0)  -->
<svg version="1.1" id="Layer_1" xmlns="http://www.w3.org/2000/svg" xmlns:xlink="http://www.w3.org/1999/xlink" x="0px" y="0px"
	 viewBox="0 0 16 16" style="enable-background:new 0 0 16 16;" xml:space="preserve">
<style type="text/css">
	.st0{fill:#424C55;}
</style>
<path class="st0" d="M14,1c-0.6,0-1,0.4-1,1v1.1c-2.7-2.8-7.1-2.9-9.8-0.2C2.2,3.8,1.5,5,1.2,6.3C1.1,6.8,1.4,7.4,1.9,7.5
	C2.5,7.7,3,7.4,3.2,6.8c0,0,0,0,0,0C3.7,4.6,5.7,3,8,3c1.6,0,3,0.7,4,2h-2C9.4,5,9,5.4,9,6s0.4,1,1,1h4c0.6,0,1-0.4,1-1V2
	C15,1.4,14.6,1,14,1z M14,8.5c-0.5-0.1-1.1,0.2-1.2,0.7c0,0,0,0,0,0C12.3,11.4,10.3,13,8,13c-1.6,0-3-0.7-4-2h2c0.6,0,1-0.4,1-1
	S6.6,9,6,9H2c-0.6,0-1,0.4-1,1v4c0,0.6,0.4,1,1,1s1-0.4,1-1v-1.1c2.7,2.8,7.1,2.9,9.8,0.2c1-0.9,1.6-2.1,1.9-3.4
	C14.9,9.2,14.6,8.6,14,8.5z"/>
</svg>
